X: 2810
T: Lady Mary Murray
C: Nathaniel Gow
R: strathspey
B: RSCDS 28-10
Z: 1997 by John Chambers <jc:trillian.mit.edu>
M: C
L: 1/8
K: G
E \
| "G"D>E G>B d/c/B/A/ BG | "Am"A>B c>B "D7"A>G F>E \
| "G"D>E G>B d/c/B/A/ BG | "C"A<B "D7"[gG]>B "G"G/G/G G :|
|| g \
| "G"d>e g>a b/a/g/f/ g>e | d<B g>B "D7"Ad FD \
| "G"d>e g>a b/a/g/f/ "C"g>e | "G"d>B g>B G/G/G G ||
|| e \
| "G"d>e g>b "D7"a<b "Em"g>a | "C"e<g "G"B>g "D7"A>G F>E \
| "G"D>E G>B d/c/B/A/ BG | "C"A<B "D7"[gG]>B "G"G/G/G G :|

%%sep 1 1 500

